X: 94
T:Y Gelynnen
T:The Holly
T:Rhif Wyth
M:C|
L:1/8
Q:200
C:Trad
S:Blodau'r Grug Collection Vol. 2
R:Set Dance
A:Wales
Z:brian_martin12345@yahoo.com
K:G
D2|G2dc BABG|c2ed cBcA|G2dc BABc|dDFA dcBA|G2dc BABG|
cBcd egec|BdBG AcAF|G2B2G2:||
d2|gfga gfed|cBcd efge|a^gab a=gfe|!d^cde defd|gfga gfed|cBcd egec
|BdBG AcAF|G2B2G2:||
